X: 19
T:Morfa Rhuddlan (fersiwn 1)
T:Rhuddlan Marsh (version 1)
M:3/4
L:1/8
Q:150
S:Robin Huw Bowen
R:Waltz
A:Wales
Z:brian_martin12345@yahoo.com
K:Am
A2Ac BA|B2Bd cB|c>B AB cd|e2eB GE|A2Ac BA|B2Bd cB|e>d cB A^G|A6:||
e2ef ge|d2de fd|c2 ce dc|c2 B>BB2|e>d ef ge|dc de fd|c2ce dc|c2B>BB2|
e>d cd ec|dc Bc dB|A>^G AB cd|e2eB ^GE|A2Ac BA|B2Bd cB|e>d cB A^G|A6:||

